X: 5
T: The Boys Of Bluehill
R: hornpipe
M: 4/4
L: 1/8
K: Dmaj
FA    | "D" BAFA "D/F#" D2FA | "G" BA (3Bcd "A" e2 de | "D" faaf "G" egfe | "D" dfed "G" B2|
dB    | "D" BAFA "D/F#" D2FA | "G" BA (3Bcd "A" e2 de | "D" faaf "G" egfe | "D" d2 dc d2 :|
|: fg | "D" afdf a2 gf       | "G" efga b2 ag         | "D" faaf "G" egfe | "D" dfed "G" B2|
dB    | "D" BAFA "D/F#" D2FA | "G" BA (3Bcd "A" e2 de | "D" faaf "G" egfe | "D" d2 dc d2  :|

